images/design-button.svg

<svg width="58" height="59" fill="none" xmlns="http://www.w3.org/2000/svg"><g clip-path="url(#clip0_1_549)" filter="url(#filter0_d_1_549)"><rect x="4" y="0.830078" width="50" height="50" rx="19" fill="#4D8DFF"/><path d="M29.4821 25.4729l1.1697.5447 1.7411-.5179v-1.2143c0-2.0625-1.7411-3.7143-3.8215-3.7143-2.0714 0-3.8214 1.6429-3.8214 3.6875v5.5358c0 .5089-.4107.9107-.9107.9107-.5 0-.9107-.4018-.9107-.9107v-2.3393H20v2.375c0 2.116 1.7143 3.8303 3.8304 3.8303 2.0982 0 3.8303-1.6875 3.8303-3.7768v-5.4642c0-.5.4107-.9108.9107-.9108.5 0 .9107.4108.9107.9108v1.0535zm4.7322 1.9822v2.4553c0 .5-.4107.9018-.9107.9018-.5 0-.9107-.4018-.9107-.9018v-2.4107l-1.7411.5179-1.1697-.5447v2.3929c0 2.0982 1.7233 3.7946 3.8304 3.7946 2.1161 0 3.8304-1.7143 3.8304-3.8303v-2.375h-2.9286z" fill="#fff"/></g><defs><filter id="filter0_d_1_549" x="0" y="0.830078" width="58" height="58" filterUnits="userSpaceOnUse" color-interpolation-filters="sRGB"><feFlood flood-opacity="0" result="BackgroundImageFix"/><feColorMatrix in="SourceAlpha" values="0 0 0 0 0 0 0 0 0 0 0 0 0 0 0 0 0 0 127 0" result="hardAlpha"/><feOffset dy="4"/><feGaussianBlur stdDeviation="2"/><feColorMatrix values="0 0 0 0 0 0 0 0 0 0 0 0 0 0 0 0 0 0 0.25 0"/><feBlend in2="BackgroundImageFix" result="effect1_dropShadow_1_549"/><feBlend in="SourceGraphic" in2="effect1_dropShadow_1_549" result="shape"/></filter><clipPath id="clip0_1_549"><path fill="#fff" transform="translate(4 0.830078)" d="M0 0h50v50H0z"/></clipPath></defs></svg>

<svg width="58" height="59" viewBox="0 0 58 59" fill="none" xmlns="http://www.w3.org/2000/svg">
<g clip-path="url(#clip0_1_549)" filter="url(#filter0_d_1_549)">
<rect x="4" y="0.830078" width="50" height="50" rx="19" fill="#4D8DFF"/>
<path d="M29.4821 25.4729L30.6518 26.0176L32.3929 25.4997V24.2854C32.3929 22.2229 30.6518 20.5711 28.5714 20.5711C26.5 20.5711 24.75 22.214 24.75 24.2586V29.7944C24.75 30.3033 24.3393 30.7051 23.8393 30.7051C23.3393 30.7051 22.9286 30.3033 22.9286 29.7944V27.4551H20C20 29.8033 20 29.8301 20 29.8301C20 31.9461 21.7143 33.6604 23.8304 33.6604C25.9286 33.6604 27.6607 31.9729 27.6607 29.8836V24.4194C27.6607 23.9194 28.0714 23.5086 28.5714 23.5086C29.0714 23.5086 29.4821 23.9194 29.4821 24.4194V25.4729ZM34.2143 27.4551V29.9104C34.2143 30.4104 33.8036 30.8122 33.3036 30.8122C32.8036 30.8122 32.3929 30.4104 32.3929 29.9104V27.4997L30.6518 28.0176L29.4821 27.4729V29.8658C29.4821 31.964 31.2054 33.6604 33.3125 33.6604C35.4286 33.6604 37.1429 31.9461 37.1429 29.8301C37.1429 29.8301 37.1429 29.8033 37.1429 27.4551H34.2143Z" fill="white"/>
</g>
<defs>
<filter id="filter0_d_1_549" x="0" y="0.830078" width="58" height="58" filterUnits="userSpaceOnUse" color-interpolation-filters="sRGB">
<feFlood flood-opacity="0" result="BackgroundImageFix"/>
<feColorMatrix in="SourceAlpha" type="matrix" values="0 0 0 0 0 0 0 0 0 0 0 0 0 0 0 0 0 0 127 0" result="hardAlpha"/>
<feOffset dy="4"/>
<feGaussianBlur stdDeviation="2"/>
<feColorMatrix type="matrix" values="0 0 0 0 0 0 0 0 0 0 0 0 0 0 0 0 0 0 0.25 0"/>
<feBlend mode="normal" in2="BackgroundImageFix" result="effect1_dropShadow_1_549"/>
<feBlend mode="normal" in="SourceGraphic" in2="effect1_dropShadow_1_549" result="shape"/>
</filter>
<clipPath id="clip0_1_549">
<rect width="50" height="50" fill="white" transform="translate(4 0.830078)"/>
</clipPath>
</defs>
</svg>
